X: 25343
T: Many A Wild Night
R: polka
M: 2/4
K: Dmajor
|:B|Ad dc/B/|AF FD|GB BA|F/G/A D2|
Ad dc/B/|AF FD|GB BA|D2 D:|
|:A|d>e fa|ge e2|Ac eg|fd dA|
d>e fa|ge ed|ce ba|d2 d:|

